interfaces/event.svg

<svg xmlns="http://www.w3.org/2000/svg" viewBox="0 0 16 16"><defs><style>.cls-1{fill:#010101;fill-rule:evenodd}</style></defs><title>event</title><g id="Layer_1" data-name="Layer 1"><path class="cls-1" d="M15.353 2.527h-.73V.5a.5.5 0 0 0-.5-.5H10.57a.5.5 0 0 0-.5.5v2.027H5.881V.5a.5.5 0 0 0-.5-.5h-3.53a.5.5 0 0 0-.5.5v2.027H.65a.5.5 0 0 0-.5.5V15.5a.5.5 0 0 0 .5.5h14.7a.5.5 0 0 0 .5-.5V3.029a.5.5 0 0 0-.497-.502zM11.608 1.21h1.471v1.77h-1.471zm-8.723 0h1.443v1.77H2.885zm11.281 13.143H1.841V4.235h12.325z"/><path class="cls-1" d="M11.773 8.164l-2.521-.2a.146.146 0 0 1-.123-.09l-.973-2.337a.146.146 0 0 0-.27 0l-.971 2.335a.146.146 0 0 1-.123.09l-2.521.2a.146.146 0 0 0-.084.257l1.921 1.645a.146.146 0 0 1 .047.145l-.587 2.46a.146.146 0 0 0 .219.159l2.159-1.319a.146.146 0 0 1 .153 0l2.159 1.319a.146.146 0 0 0 .219-.159l-.587-2.46a.146.146 0 0 1 .047-.145l1.921-1.645a.146.146 0 0 0-.085-.255z"/></g></svg>

<svg xmlns="http://www.w3.org/2000/svg" viewBox="0 0 16 16"><defs><style>.cls-1{fill:#010101;fill-rule:evenodd;}</style></defs><title>event</title><g id="Layer_1" data-name="Layer 1"><path class="cls-1" d="M15.353,2.527h-.73V.5a.5.5,0,0,0-.5-.5H10.57a.5.5,0,0,0-.5.5V2.527H5.881V.5a.5.5,0,0,0-.5-.5H1.851a.5.5,0,0,0-.5.5V2.527H.65a.5.5,0,0,0-.5.5V15.5a.5.5,0,0,0,.5.5h14.7a.5.5,0,0,0,.5-.5V3.029A.5.5,0,0,0,15.353,2.527ZM11.608,1.21h1.471V2.98H11.608Zm-8.723,0H4.328V2.98H2.885ZM14.166,14.353H1.841V4.235H14.166Z"/><path class="cls-1" d="M11.773,8.164l-2.521-.2a.146.146,0,0,1-.123-.09L8.156,5.537a.146.146,0,0,0-.27,0L6.915,7.872a.146.146,0,0,1-.123.09l-2.521.2a.146.146,0,0,0-.084.257l1.921,1.645a.146.146,0,0,1,.047.145l-.587,2.46a.146.146,0,0,0,.219.159l2.159-1.319a.146.146,0,0,1,.153,0l2.159,1.319a.146.146,0,0,0,.219-.159l-.587-2.46a.146.146,0,0,1,.047-.145l1.921-1.645A.146.146,0,0,0,11.773,8.164Z"/></g></svg>
